src/assets/icons/close.svg

<svg width="16" height="16" viewBox="0 0 16 16" fill="none" xmlns="http://www.w3.org/2000/svg">
<g clip-path="url(#clip0_8874_15294)">
<path fill-rule="evenodd" clip-rule="evenodd" d="M0.789306 0.0259903C0.611593 0.0645134 0.469192 0.139182 0.333133 0.265135C0.0645013 0.51383 -0.0476794 0.846568 0.0234219 1.18366C0.0896087 1.4975 -0.145711 1.24577 3.38149 4.77586L6.60397 8.00098L3.38149 11.2261C-0.145711 14.7562 0.0896087 14.5045 0.0234219 14.8183C-0.0266542 15.0557 0.0229464 15.327 0.153636 15.5306C0.238153 15.6623 0.425001 15.8325 0.554819 15.896C0.842335 16.0367 1.20874 16.0281 1.48171 15.8742C1.53864 15.8421 2.73347 14.6621 4.7861 12.611L8.00131 9.3982L11.2165 12.611C13.2691 14.6621 14.464 15.8421 14.5209 15.8742C14.7939 16.0281 15.1603 16.0367 15.4478 15.896C15.5776 15.8325 15.7645 15.6623 15.849 15.5306C16.0327 15.2443 16.0434 14.8202 15.8745 14.5206C15.8424 14.4636 14.6625 13.2688 12.6114 11.2162L9.39852 8.00098L12.6114 4.78577C14.6625 2.73315 15.8424 1.53832 15.8745 1.48139C16.0434 1.18174 16.0327 0.757652 15.849 0.471324C15.7645 0.339684 15.5776 0.169461 15.4479 0.105989C15.3392 0.0528019 15.1109 -0.00415039 15.0064 -0.00415039C14.9026 -0.00415039 14.674 0.0526434 14.5609 0.106564C14.4669 0.151369 13.9985 0.611367 11.2264 3.38117L8.00131 6.60365L4.77619 3.38117C1.25777 -0.134384 1.49641 0.0892047 1.19404 0.0251581C1.02673 -0.0102935 0.955903 -0.010135 0.789306 0.0259903Z" fill="currentColor"/>
</g>
<defs>
<clipPath id="clip0_8874_15294">
<rect width="16" height="16" fill="white"/>
</clipPath>
</defs>
</svg>

<svg xmlns="http://www.w3.org/2000/svg" width="16" height="16" fill="none">
  <g clip-path="url(#a)">
    <path fill="currentColor" fill-rule="evenodd" d="M.79.026a.932.932 0 0 0-.457.24.96.96 0 0 0-.31.918c.067.314-.169.062 3.358 3.592L6.604 8l-3.223 3.225C-.146 14.756.09 14.504.023 14.818a.99.99 0 0 0 .13.713c.085.131.272.301.402.365.287.14.654.132.927-.022.057-.032 1.251-1.212 3.304-3.263l3.215-3.213 3.216 3.213c2.052 2.051 3.247 3.231 3.304 3.263.273.154.64.163.927.022.13-.064.316-.234.401-.365a1.03 1.03 0 0 0 .025-1.01c-.032-.057-1.212-1.252-3.263-3.305L9.4 8.001l3.212-3.215c2.051-2.053 3.231-3.248 3.263-3.305a1.03 1.03 0 0 0-.025-1.01 1.229 1.229 0 0 0-.401-.365 1.373 1.373 0 0 0-.442-.11 1.41 1.41 0 0 0-.445.11c-.094.045-.563.505-3.335 3.275L8.001 6.604 4.776 3.38C1.258-.134 1.496.09 1.194.025a.776.776 0 0 0-.405.001Z" clip-rule="evenodd"/>
  </g>
  <defs>
    <clipPath id="a">
      <path fill="#fff" d="M0 0h16v16H0z"/>
    </clipPath>
  </defs>
</svg>
